packages/calcite-ui-icons/icons/language-2-32.svg

<?xml version="1.0" encoding="UTF-8"?><svg id="icons" xmlns="http://www.w3.org/2000/svg" viewBox="0 0 32 32"><defs><style>.cls-1{fill:none;}</style></defs><path d="M17.55859,17.97656l.35156-.93555c-2.20923-.82983-4.21948-2.17981-5.9054-3.71692,2.2569-2.4411,3.54688-5.25934,3.99524-7.3241h2v-1h-6.45571l-2.81773-2.98828-.72656.6875,2.16833,2.30078h-6.16833v1h2c.46454,1.9942,2.05255,4.81873,4.55469,7.33026-1.73438,1.65839-3.91901,3.03973-6.52832,3.69318l.24219.9707c2.87573-.72028,5.20557-2.19849,7.02606-3.95081,1.76074,1.61255,3.87799,3.03705,6.26398,3.93323ZM7.02887,5.999h7.94537c-.47784,1.98218-1.7171,4.46246-3.711,6.61243-2.242-2.24487-3.73297-4.75732-4.23438-6.61243ZM28.11328,29.95996l.88672-.46484-7-13.49512-7,13.43848.88281.46875,2.01465-3.90723h8.14325l2.07257,3.95996ZM18.42859,25l3.57141-7,3.51685,7h-7.08826Z"/><rect class="cls-1" width="32" height="32"/></svg>

<svg xmlns="http://www.w3.org/2000/svg" viewBox="0 0 32 32"><path d="M17.559 17.977l.351-.936c-2.21-.83-4.22-2.18-5.905-3.717C14.262 10.883 15.552 8.064 16 6h2V5h-6.456L8.727 2.012 8 2.699 10.168 5H4v1h2c.465 1.994 2.053 4.819 4.555 7.33-1.735 1.659-3.92 3.04-6.529 3.693l.243.971c2.875-.72 5.205-2.198 7.026-3.95 1.76 1.612 3.878 3.036 6.264 3.933zM7.029 5.999h7.945c-.478 1.982-1.717 4.462-3.71 6.612C9.02 10.367 7.53 7.854 7.028 6zM28.113 29.96l.887-.465L22 16l-7 13.438.883.47L17.897 26h8.144l2.072 3.96zM18.43 25L22 18l3.517 7h-7.088z"/><path fill="none" d="M0 0h32v32H0z"/></svg>
